!!!COM: Music21
!!!OTL: hornpipe_Plains-Of-Boyle--The
!!!OMV: hornpipe_Plains-Of-Boyle--The
**kern
*clefG2
*k[f#c#]
*D:
*M4/4
=1
8f#L
8gJ
=
8aL
8f#J
8dL
8eJ
8f#L
8eJ
8dL
8f#J
=
12aL
12b
12aJ
8gL
8bJ
8aL
8f#J
4d
=
8ff#L
8eeJ
8ddL
8ff#J
8eeL
8ddJ
8cc#L
8eeJ
=
8ddL
8bJ
8aL
8bJ
8ccnL
8aJ
8bL
8gJ
!!linebreak:original
=
8aL
8f#J
8dL
8eJ
8f#L
8eJ
8dL
8f#J
=
12aL
12b
12aJ
8gL
8bJ
8aL
8f#J
4d
=
8ff#L
8eeJ
8ddL
8bJ
12aL
12b
12aJ
8gL
8eJ
=
4f#
4d
4d
4ryy
=||
*M4/4
8f#L
8gJ
=
8aL
8f#J
8dL
8eJ
8f#L
8eJ
8dL
8f#J
!!linebreak:original
=
12aL
12b
12aJ
8gL
8bJ
8aL
8f#J
4d
=
8ff#L
8eeJ
8ddL
8ff#J
8eeL
8ddJ
8cc#L
8eeJ
=
8ddL
8bJ
8aL
8bJ
8ccnL
8aJ
8bL
8gJ
=
8aL
8f#J
8dL
8eJ
8f#L
8eJ
8dL
8f#J
=
12aL
12b
12aJ
8gL
8bJ
8aL
8f#J
4d
!!linebreak:original
=
8ff#L
8eeJ
8ddL
8bJ
12aL
12b
12aJ
8gL
8eJ
=
4f#
4d
4d
4ryy
=||
8ff#L
8ggJ
2.ryy
=
8aaL
8ff#J
8ddL
8ff#J
4gg
8ff#L
8eeJ
=
8ddL
8ff#J
8eeL
8ddJ
8bL
8aJ
8f#L
8gJ
=
12aL
12b
12aJ
8f#L
8aJ
8bL
8aJ
8f#L
8aJ
!!linebreak:original
=
4a
8f#L
8aJ
8bL
8aJ
8ff#L
8ggJ
=
8aaL
8ff#J
8ddL
8ff#J
4gg
8ff#L
8eeJ
=
8ddL
8ff#J
8eeL
8ddJ
8bL
8aJ
8f#L
8gJ
=
4.a
8f#
8gL
8bJ
8aL
8gJ
=
4f#
4d
4d
4ryy
=||
8ff#L
8ggJ
2.ryy
!!linebreak:original
=
8aaL
8ff#J
8ddL
8ff#J
4gg
8ff#L
8eeJ
=
8ddL
8ff#J
8eeL
8ddJ
8bL
8aJ
8f#L
8gJ
=
12aL
12b
12aJ
8f#L
8aJ
8bL
8aJ
8f#L
8aJ
=
4a
8f#L
8aJ
8bL
8aJ
8ff#L
8ggJ
=
8aaL
8ff#J
8ddL
8ff#J
4gg
8ff#L
8eeJ
!!linebreak:original
=
8ddL
8ff#J
8eeL
8ddJ
8bL
8aJ
8f#L
8gJ
=
4.a
8f#
8gL
8bJ
8aL
8gJ
=
4f#
4d
4d
4ryy
=||
*-
